X: 1
T: Ladies Pantalettes, The
M: 4/4
L: 1/8
R: reel
K: Gmaj
(3Bcd cA ~G3c|AF~F2 DF~F2|BdcA G2ge|fdcA BG~G2:|
fgaf g2fg|afag fdde|fgaf g2ag|fdcA BGG2|
fgaf g2fg|~a3g fdde|~f3g ~a3g|fdcA d2cA|
